X: 21813
T: GARRY OWEN
O: Irish air
Q: "Jig time."
%R: jig, march
B: W. Hamilton "Universal Tune-Book" Vol. 2 Glasgow 1846 p.181 #3
S: http://s3-eu-west-1.amazonaws.com/itma.dl.printmaterial/book_pdfs/hamiltonvol2web.pdf
Z: 2016 John Chambers <jc:trillian.mit.edu>
M: 6/8
L: 1/8
K: F
% - - - - - - - - - - - - - - - - - - - - - - - - -
f/e/ |\
dcB AGF | ABA A2f | dcB AGF | GAG G2f |\
dcB AGF | ABA A2d | cde f2A | G>AG G2 :|
|: A/B/ |\
A/B/cA c2A | {AB}c2A c2f | d2B d2B | d2B d2e |\
f2g {fg}a2g | f2d c2A | cde fcA | G>AG G2 :|
% - - - - - - - - - - - - - - - - - - - - - - - - -
%%begintext align
%% The comic song, "Walker the Twopenny Postman," is sung to the above air.
%%endtext
%%sep 1 1 300

%%sep 1 1 500
%%sep 1 1 500

